svg/fluentui-system-icons/ic_fluent_mail_28_filled.svg

<svg width="28" height="28" viewBox="0 0 28 28" fill="none" xmlns="http://www.w3.org/2000/svg">
<path d="M2.99985 10.124L13.654 15.6654C13.8709 15.7782 14.1291 15.7782 14.346 15.6654L25 10.125V19.75C25 21.483 23.6435 22.8992 21.9344 22.9949L21.75 23H6.25C4.51697 23 3.10076 21.6435 3.00515 19.9344L2.99985 19.75V10.124ZM6.25 5H21.75C23.483 5 24.8992 6.35646 24.9949 8.06558L25 8.25V8.434L14 14.1547L2.99985 8.434V8.25C2.99985 6.51697 4.35646 5.10075 6.06558 5.00514L6.25 5H21.75H6.25Z" fill="#212121"/>
</svg>

<svg xmlns="http://www.w3.org/2000/svg" width="28" height="28"><path d="m3 10.124 10.654 5.541a.75.75 0 0 0 .692 0L25 10.125v9.625a3.25 3.25 0 0 1-3.066 3.245L21.75 23H6.25a3.25 3.25 0 0 1-3.245-3.066L3 19.75v-9.626ZM6.25 5h15.5a3.25 3.25 0 0 1 3.245 3.066L25 8.25v.184l-11 5.72-11-5.72V8.25a3.25 3.25 0 0 1 3.066-3.245L6.25 5h15.5-15.5Z"/></svg>
